www/assets/icons/medication.svg

<svg xmlns="http://www.w3.org/2000/svg" width="24" height="24" viewBox="0 0 24 24" fill='currentColor'><path d="M18 3H6v2h12zm-1 3H7c-1.1 0-2 .9-2 2v11c0 1.1.9 2 2 2h10c1.1 0 2-.9 2-2V8c0-1.1-.9-2-2-2m-1 9h-2.5v2.5h-3V15H8v-3h2.5V9.5h3V12H16z"/></svg>

<svg width="24" height="24" viewBox="0 0 24 24" xmlns="http://www.w3.org/2000/svg" fill='currentColor'><path d="M18 3H6V5H18V3Z"/><path d="M17 6H7C5.9 6 5 6.9 5 8V19C5 20.1 5.9 21 7 21H17C18.1 21 19 20.1 19 19V8C19 6.9 18.1 6 17 6ZM16 15H13.5V17.5H10.5V15H8V12H10.5V9.5H13.5V12H16V15Z"/></svg>
